static/img/kroki/79f8a152ebcb396ede7f2fd5530e4bae.svg

<?xml version="1.0" encoding="us-ascii" standalone="no"?><svg xmlns="http://www.w3.org/2000/svg" xmlns:xlink="http://www.w3.org/1999/xlink" contentStyleType="text/css" height="252px" preserveAspectRatio="none" style="width:767px;height:252px;" version="1.1" viewBox="0 0 767 252" width="767px" zoomAndPan="magnify"><defs/><g><!--class gcp_vertex_ai_endpoint--><g id="elem_gcp_vertex_ai_endpoint"><rect codeLine="23" fill="#3D176E" height="39.7891" id="gcp_vertex_ai_endpoint" rx="2.5" ry="2.5" style="stroke:#000D19;stroke-width:0.5;" width="240" x="315.5" y="106.79"/><ellipse cx="330.5" cy="126.6845" fill="#ADD1B2" rx="11" ry="11" style="stroke:#181818;stroke-width:1.0;"/><path d="M333.4688,132.3252 Q332.8906,132.622 332.25,132.7627 Q331.6094,132.9189 330.9063,132.9189 Q328.4063,132.9189 327.0781,131.2783 Q325.7656,129.622 325.7656,126.497 Q325.7656,123.372 327.0781,121.7158 Q328.4063,120.0595 330.9063,120.0595 Q331.6094,120.0595 332.25,120.2158 Q332.9063,120.372 333.4688,120.6689 L333.4688,123.3877 Q332.8438,122.8095 332.25,122.5439 Q331.6563,122.2627 331.0313,122.2627 Q329.6875,122.2627 329,123.3408 Q328.3125,124.4033 328.3125,126.497 Q328.3125,128.5908 329,129.6689 Q329.6875,130.7314 331.0313,130.7314 Q331.6563,130.7314 332.25,130.4658 Q332.8438,130.1845 333.4688,129.6064 L333.4688,132.3252 Z " fill="#000000"/><text fill="#D9B8FF" font-family="Helvetica" font-size="17" lengthAdjust="spacing" textLength="198" x="349.5" y="132.5698">gcp_vertex_ai_endpoint</text></g><!--class gcp_vertex_ai_model--><g id="elem_gcp_vertex_ai_model"><rect codeLine="26" fill="#3D176E" height="39.7891" id="gcp_vertex_ai_model" rx="2.5" ry="2.5" style="stroke:#000D19;stroke-width:0.5;" width="218" x="326.5" y="7"/><ellipse cx="341.5" cy="26.8945" fill="#ADD1B2" rx="11" ry="11" style="stroke:#181818;stroke-width:1.0;"/><path d="M344.4688,32.5352 Q343.8906,32.832 343.25,32.9727 Q342.6094,33.1289 341.9063,33.1289 Q339.4063,33.1289 338.0781,31.4883 Q336.7656,29.832 336.7656,26.707 Q336.7656,23.582 338.0781,21.9258 Q339.4063,20.2695 341.9063,20.2695 Q342.6094,20.2695 343.25,20.4258 Q343.9063,20.582 344.4688,20.8789 L344.4688,23.5977 Q343.8438,23.0195 343.25,22.7539 Q342.6563,22.4727 342.0313,22.4727 Q340.6875,22.4727 340,23.5508 Q339.3125,24.6133 339.3125,26.707 Q339.3125,28.8008 340,29.8789 Q340.6875,30.9414 342.0313,30.9414 Q342.6563,30.9414 343.25,30.6758 Q343.8438,30.3945 344.4688,29.8164 L344.4688,32.5352 Z " fill="#000000"/><text fill="#D9B8FF" font-family="Helvetica" font-size="17" lengthAdjust="spacing" textLength="176" x="360.5" y="32.7798">gcp_vertex_ai_model</text></g><!--class gcp_vertex_ai_model_deployment_monitoring_job--><g id="elem_gcp_vertex_ai_model_deployment_monitoring_job"><rect codeLine="29" fill="#3D176E" height="39.7891" id="gcp_vertex_ai_model_deployment_monitoring_job" rx="2.5" ry="2.5" style="stroke:#000D19;stroke-width:0.5;" width="463" x="7" y="206.58"/><ellipse cx="22" cy="226.4745" fill="#ADD1B2" rx="11" ry="11" style="stroke:#181818;stroke-width:1.0;"/><path d="M24.9688,232.1152 Q24.3906,232.412 23.75,232.5527 Q23.1094,232.7089 22.4063,232.7089 Q19.9063,232.7089 18.5781,231.0683 Q17.2656,229.412 17.2656,226.287 Q17.2656,223.162 18.5781,221.5058 Q19.9063,219.8495 22.4063,219.8495 Q23.1094,219.8495 23.75,220.0058 Q24.4063,220.162 24.9688,220.4589 L24.9688,223.1777 Q24.3438,222.5995 23.75,222.3339 Q23.1563,222.0527 22.5313,222.0527 Q21.1875,222.0527 20.5,223.1308 Q19.8125,224.1933 19.8125,226.287 Q19.8125,228.3808 20.5,229.4589 Q21.1875,230.5214 22.5313,230.5214 Q23.1563,230.5214 23.75,230.2558 Q24.3438,229.9745 24.9688,229.3964 L24.9688,232.1152 Z " fill="#000000"/><text fill="#D9B8FF" font-family="Helvetica" font-size="17" lengthAdjust="spacing" textLength="421" x="41" y="232.3598">gcp_vertex_ai_model_deployment_monitoring_job</text></g><!--class gcp_vertex_ai_tuning_job--><g id="elem_gcp_vertex_ai_tuning_job"><rect codeLine="32" fill="#3D176E" height="39.7891" id="gcp_vertex_ai_tuning_job" rx="2.5" ry="2.5" style="stroke:#000D19;stroke-width:0.5;" width="255" x="505" y="206.58"/><ellipse cx="520" cy="226.4745" fill="#ADD1B2" rx="11" ry="11" style="stroke:#181818;stroke-width:1.0;"/><path d="M522.9688,232.1152 Q522.3906,232.412 521.75,232.5527 Q521.1094,232.7089 520.4063,232.7089 Q517.9063,232.7089 516.5781,231.0683 Q515.2656,229.412 515.2656,226.287 Q515.2656,223.162 516.5781,221.5058 Q517.9063,219.8495 520.4063,219.8495 Q521.1094,219.8495 521.75,220.0058 Q522.4063,220.162 522.9688,220.4589 L522.9688,223.1777 Q522.3438,222.5995 521.75,222.3339 Q521.1563,222.0527 520.5313,222.0527 Q519.1875,222.0527 518.5,223.1308 Q517.8125,224.1933 517.8125,226.287 Q517.8125,228.3808 518.5,229.4589 Q519.1875,230.5214 520.5313,230.5214 Q521.1563,230.5214 521.75,230.2558 Q522.3438,229.9745 522.9688,229.3964 L522.9688,232.1152 Z " fill="#000000"/><text fill="#D9B8FF" font-family="Helvetica" font-size="17" lengthAdjust="spacing" textLength="213" x="539" y="232.3598">gcp_vertex_ai_tuning_job</text></g><!--link gcp_vertex_ai_endpoint to gcp_vertex_ai_model_deployment_monitoring_job--><g id="link_gcp_vertex_ai_endpoint_gcp_vertex_ai_model_deployment_monitoring_job"><path codeLine="35" d="M396.58,147.01 C362.04,164.15 317.2237,186.3911 282.7137,203.5311 " fill="none" id="gcp_vertex_ai_endpoint-to-gcp_vertex_ai_model_deployment_monitoring_job" style="stroke:#1A83AF;stroke-width:2.0;"/><polygon fill="#1A83AF" points="277.34,206.2,287.1799,205.7791,281.8181,203.9759,283.6213,198.6141,277.34,206.2" style="stroke:#1A83AF;stroke-width:2.0;"/></g><!--link gcp_vertex_ai_endpoint to gcp_vertex_ai_tuning_job--><g id="link_gcp_vertex_ai_endpoint_gcp_vertex_ai_tuning_job"><path codeLine="36" d="M474.42,147.01 C508.96,164.15 553.7763,186.3911 588.2863,203.5311 " fill="none" id="gcp_vertex_ai_endpoint-to-gcp_vertex_ai_tuning_job" style="stroke:#1A83AF;stroke-width:2.0;"/><polygon fill="#1A83AF" points="593.66,206.2,587.3787,198.6141,589.1819,203.9759,583.8201,205.7791,593.66,206.2" style="stroke:#1A83AF;stroke-width:2.0;"/></g><!--link gcp_vertex_ai_model to gcp_vertex_ai_endpoint--><g id="link_gcp_vertex_ai_model_gcp_vertex_ai_endpoint"><path codeLine="37" d="M435.5,47.22 C435.5,64.36 435.5,83.27 435.5,100.41 " fill="none" id="gcp_vertex_ai_model-to-gcp_vertex_ai_endpoint" style="stroke:#1A83AF;stroke-width:2.0;"/><polygon fill="#1A83AF" points="435.5,106.41,439.5,97.41,435.5,101.41,431.5,97.41,435.5,106.41" style="stroke:#1A83AF;stroke-width:2.0;"/></g><!--SRC=[dP91Jy9048Nl_HMRS2QXDWfSJ2e9qGinuisOPjkTmaftfvaTG3J-Tuk8BYs5w7NUjs_Uc-nSAn1WIju80oO5Se5RQ5jAaaR4HBWUOO4aEdakywXV5yTe-ImmaGR4BHGhO9t9El4urzd2WdFYmfDkPBQO4IwjsjapIUig2InxrAYGpiNCfDCbWnT63TD1djV9kcadKc7_2XeOaWBwHdgzdWg7TUJigfEzVuYfVWCH-aUR84CZPcF55tKovPRmGZQAxlNMZFTIAMrdujARFUmoaGKwc4_dKk5wI-UoSFuQnq20l2bXr6W5mu7A-qVXkpOuoBQd4xEiJ5P03A-9r0bOLQAsBDw3uECeOL11SKPE59G5Raprmwg1rOnKDKfUC6r_o4jxmBJawZvrmdWGnUFdxlNVLl_3yJTJSEm89rxktODF]--></g></svg>

<svg xmlns="http://www.w3.org/2000/svg" width="767" height="252" viewBox="0 0 767 252"><rect width="240" height="39.789" x="315.5" y="106.79" fill="#3D176E" rx="2.5" ry="2.5" style="stroke:#000d19;stroke-width:.5"/><circle cx="330.5" cy="126.684" r="11" fill="#ADD1B2" style="stroke:#181818;stroke-width:1"/><path d="M333.469 132.325q-.578.297-1.219.438-.64.156-1.344.156-2.5 0-3.828-1.64-1.312-1.657-1.312-4.782t1.312-4.781q1.328-1.656 3.828-1.656.703 0 1.344.156.656.156 1.219.453v2.719q-.625-.579-1.219-.844-.594-.281-1.219-.281-1.344 0-2.031 1.078-.687 1.062-.687 3.156t.687 3.172q.688 1.062 2.031 1.062.625 0 1.219-.265.594-.281 1.219-.86z"/><text x="349.5" y="132.57" fill="#D9B8FF" font-family="Helvetica" font-size="17" textLength="198">gcp_vertex_ai_endpoint</text><rect width="218" height="39.789" x="326.5" y="7" fill="#3D176E" rx="2.5" ry="2.5" style="stroke:#000d19;stroke-width:.5"/><circle cx="341.5" cy="26.895" r="11" fill="#ADD1B2" style="stroke:#181818;stroke-width:1"/><path d="M344.469 32.535q-.578.297-1.219.438-.64.156-1.344.156-2.5 0-3.828-1.64-1.312-1.657-1.312-4.782t1.312-4.781q1.328-1.656 3.828-1.656.703 0 1.344.156.656.156 1.219.453v2.719q-.625-.578-1.219-.844-.594-.281-1.219-.281-1.344 0-2.031 1.078-.687 1.062-.687 3.156t.687 3.172q.688 1.062 2.031 1.062.625 0 1.219-.265.594-.281 1.219-.86z"/><text x="360.5" y="32.78" fill="#D9B8FF" font-family="Helvetica" font-size="17" textLength="176">gcp_vertex_ai_model</text><rect width="463" height="39.789" x="7" y="206.58" fill="#3D176E" rx="2.5" ry="2.5" style="stroke:#000d19;stroke-width:.5"/><circle cx="22" cy="226.475" r="11" fill="#ADD1B2" style="stroke:#181818;stroke-width:1"/><path d="M24.969 232.115q-.578.297-1.219.438-.64.156-1.344.156-2.5 0-3.828-1.64-1.312-1.657-1.312-4.782t1.312-4.781q1.328-1.656 3.828-1.656.703 0 1.344.156.656.156 1.219.453v2.719q-.625-.578-1.219-.844-.594-.281-1.219-.281-1.343 0-2.031 1.078-.687 1.062-.687 3.156t.687 3.172q.688 1.062 2.031 1.062.625 0 1.219-.265.594-.281 1.219-.86z"/><text x="41" y="232.36" fill="#D9B8FF" font-family="Helvetica" font-size="17" textLength="421">gcp_vertex_ai_model_deployment_monitoring_job</text><rect width="255" height="39.789" x="505" y="206.58" fill="#3D176E" rx="2.5" ry="2.5" style="stroke:#000d19;stroke-width:.5"/><circle cx="520" cy="226.475" r="11" fill="#ADD1B2" style="stroke:#181818;stroke-width:1"/><path d="M522.969 232.115q-.578.297-1.219.438-.64.156-1.344.156-2.5 0-3.828-1.64-1.312-1.657-1.312-4.782t1.312-4.781q1.328-1.656 3.828-1.656.703 0 1.344.156.656.156 1.219.453v2.719q-.625-.578-1.219-.844-.594-.281-1.219-.281-1.343 0-2.031 1.078-.687 1.062-.687 3.156t.687 3.172q.688 1.062 2.031 1.062.625 0 1.219-.265.594-.281 1.219-.86z"/><text x="539" y="232.36" fill="#D9B8FF" font-family="Helvetica" font-size="17" textLength="213">gcp_vertex_ai_tuning_job</text><path fill="none" d="M396.58 147.01c-34.54 17.14-79.356 39.381-113.866 56.521" style="stroke:#1a83af;stroke-width:2"/><path fill="#1A83AF" d="m277.34 206.2 9.84-.42-5.362-1.804 1.803-5.362z" style="stroke:#1a83af;stroke-width:2"/><path fill="none" d="M474.42 147.01c34.54 17.14 79.356 39.381 113.866 56.521" style="stroke:#1a83af;stroke-width:2"/><path fill="#1A83AF" d="m593.66 206.2-6.281-7.586 1.803 5.362-5.362 1.803z" style="stroke:#1a83af;stroke-width:2"/><path fill="none" d="M435.5 47.22v53.19" style="stroke:#1a83af;stroke-width:2"/><path fill="#1A83AF" d="m435.5 106.41 4-9-4 4-4-4z" style="stroke:#1a83af;stroke-width:2"/></svg>
